gui/assets/hide.svg

<svg width="800px" height="800px" viewBox="0 0 24 24" fill="none" xmlns="http://www.w3.org/2000/svg">
  <g id="Edit / Hide">
    <path id="Vector"
      d="M3.99989 4L19.9999 20M16.4999 16.7559C15.1473 17.4845 13.6185 17.9999 11.9999 17.9999C8.46924 17.9999 5.36624 15.5478 3.5868 13.7788C3.1171 13.3119 2.88229 13.0784 2.7328 12.6201C2.62619 12.2933 2.62616 11.7066 2.7328 11.3797C2.88233 10.9215 3.11763 10.6875 3.58827 10.2197C4.48515 9.32821 5.71801 8.26359 7.17219 7.42676M19.4999 14.6335C19.8329 14.3405 20.138 14.0523 20.4117 13.7803L20.4146 13.7772C20.8832 13.3114 21.1182 13.0779 21.2674 12.6206C21.374 12.2938 21.3738 11.7068 21.2672 11.38C21.1178 10.9219 20.8827 10.6877 20.4133 10.2211C18.6338 8.45208 15.5305 6 11.9999 6C11.6624 6 11.3288 6.02241 10.9999 6.06448M13.3228 13.5C12.9702 13.8112 12.5071 14 11.9999 14C10.8953 14 9.99989 13.1046 9.99989 12C9.99989 11.4605 10.2135 10.9711 10.5608 10.6113"
      stroke="white" stroke-width="2" stroke-linecap="round" stroke-linejoin="round" />
  </g>
</svg>

<svg width="800" height="800" viewBox="0 0 24 24" fill="none" xmlns="http://www.w3.org/2000/svg">
  <path
    d="m4 4 16 16m-3.5-3.244C15.147 17.485 13.618 18 12 18c-3.53 0-6.634-2.452-8.413-4.221-.47-.467-.705-.7-.854-1.159-.107-.327-.107-.913 0-1.24.15-.459.385-.693.855-1.16.897-.892 2.13-1.956 3.584-2.793M19.5 14.634c.333-.293.638-.582.912-.854l.003-.003c.468-.466.703-.7.852-1.156.107-.327.107-.914 0-1.241-.15-.458-.384-.692-.854-1.159C18.633 8.452 15.53 6 12 6c-.338 0-.671.022-1 .064m2.323 7.436a2 2 0 0 1-2.762-2.889"
    stroke="#fff" stroke-width="2" stroke-linecap="round" stroke-linejoin="round" />
</svg>
